X:1
T:Verily, verily I say unto you
T:Verily, verily I say unto you
T:Thomas Tallis
C:Thomas Tallis
%%score [ 1 2 3 4 ]
L:1/8
Q:1/4=100
M:4/4
K:D
V:1 treble nm="Soprano"
V:2 treble nm="Alto"
V:3 treble-8 nm="Tenor"
V:4 bass nm="Bass"
V:1
 E3 E E2 (G2 | G)G F4 B2- | B2 A2 G2 G2 | F4 z2 F2 | F3 G A2 A2 | B4 B2 B2 | c2 c2 d4 | %7
w: Ve- ri- ly, ve-|* ri- ly, I|_ say un- to|you: ex-|cept ye eat the|flesh of the|Son of man,|
 d2 (c3 B) B2 | ^A4 =A2 d2 | B2 e4 d2- | d2 c2 d4 | z4 (B4 | B2) B2 B4 | B2 B2 (A4 | A2) B2 G2 GG | %15
w: and drink _ his|blood, ye have|no life in|_ _ you.|Who|_ so eat-|eth my flesh,|_ and drink- eth my|
 F4 f3 e | d2 (c3 B B2- | B2) ^A2 B4 | z2 B2 B2 G2 | FFE(F G)A F2 | E2 B2 GABc | ^d2 e2 e2 d2 | %22
w: blood, hath e-|* ter- * *|* nal life;|and I wil|raise him up at _ the last|day, and I will raise him|up at the last|
 e4 z4 | B2 B2 d2 d2 | c2 c2 B4 | z4 B2 B2 | d2 d2 c2 c2 | B4 z2 f2- | f2 e2 d2 dd | c4 c2 (e2 | %30
w: day.|For my flesh is|meat in- deed,|and my|blood is drink in-|deed. He|_ that eat- eth my|flesh, and drink|
 e)d (cB) ^A4 | z2 d2 c2 B2 | A4 G2 F2- | F2 (E4 ^D2) | E8 |] %35
w: _ eth my _ blood,|dwell- eth in|me, and I|_ in _|him.|
V:2
 B,3 B, B,2 (E2 | E)E ^D4 F2- | F2 F2 D2 E2 | C4 z2 D2 | D2 D2 E2 E2 | F4 F2 ^G2 | =A4 =G2 F2 | %7
w: Ve- ri- ly, ve-|* ri- ly, I|_ say un- to|you: ex-|cept ye eat the|flesh of the|Son of man,|
 F2 G4 E2 | F4 F2 A2 | G2 B4 (G2 | A4) F4 | z4 (G4 | G2) G2 G4 | D2 E2 (F4 | F2) F2 E2 EE | %15
w: and drink his|blood, ye have|no life in|_ you.|Who|_ so eat-|eth my flesh,|_ and drink- eth my|
 ^D4 =D3 E | FG (A2 G2 E2 | F3) F F4 | z2 B,2 G,A,B,C | D2 E2 E2 ^D2 | E2 G2 G2 G2 | FF B2 AA F2 | %22
w: blood, hath e-|* * ter- * *|* nal life;|and I will raise him|up at the last|day, and I will|raise him up at the last|
 ^G4 z4 | =G2 G2 F2 B2 | B2 ^A2 B4 | z4 G2 G2 | F2 B2 (AG) (FE) | ^D4 z2 A2- | A2 A2 DE (FG) | %29
w: day.|For my flesh is|meat in- deed,|and my|blood is drink _ in- *|deed. He|_ that eat- eth my _|
 A4 A2 (B2 | B)B G2 F4 | z2 A2 G2 G2 | F4 D4 | B,6 B,2 | B,8 |] %35
w: flesh, and drink|_ eth my blood,|dwell- eth in|me, and|I in|him.|
V:3
 G3 G E2 (B2 | B)B B4 =d2- | d2 c2 B2 B2 | ^A4 z2 =A2 | A2 B2 c2 c2 | d4 cB B2- | B2 ^A2 B3 (c | %7
w: Ve- ri- ly, ve-|* ri- ly: I|_ say un- to|you: ex-|cept ye eat the|flesh of the Son|_ of man, and|
 d2) e3 (d B2) | c4 c2 f2 | d2 g3 f (d2 | e4) d4 | z4 (d4 | d2) e2 d4 | B2 B2 (c4 | c2) d2 B2 BB | %15
w: _ drink his _|blood, ye have|no life in _|_ you.|Who|_ so eat-|eth my flesh,|_ and drink- eth my|
 B4 B2 (Bc) | de f2 (ed B2 | c4) B4 | z2 G2 EFGA | B2 EE B4 | B2 e2 e2 e2 | =dd g2 ff f2 | e4 z4 | %23
w: blood, hath e- *|* * ter- nal _ _|_ life;|and I will raise him|up at the last|day, and I wil|raise him up at the last|day.|
 e2 e2 d2 B2 | f2 f2 f4 | z4 e2 e2 | d2 B2 f2 f2 | f4 z2 =d2- | d2 e2 f2 dd | e4 e2 (g2 | %30
w: For my flesh is|meat in- deed,|and my|blood is drink in-|deed. He|_ that eat- eth my|flesh, and drink|
 g)f (ed) c4 | z2 f2 e3 d | c4 B4 | G4 F4 | ^G8 |] %35
w: _ eth my _ blood,|dwell- eth in|me, and|I in|him.|
V:4
 E,3 E, E,2 (E,2 | E,)E, B,,4 B,,2- | B,,2 F,2 G,2 E,2 | F,4 z2 D,2 | D,2 D,2 C,2 C,2 | %5
w: Ve- ri- ly, ve-|* ri- ly, I|_ say un- to|you: ex-|cept ye eat the|
 B,,4 D,2 E,2 | C,2 C,2 B,,4 | B,2 E,4 G,2 | F,6 D,2 | G,2 E,2 B,4 | A,4 D,4 | z4 (G,4 | %12
w: flesh of the|Son of man,|and drink his|blood, ye|have no life|in you.|Who|
 G,2) E,2 G,4 | G,2 G,2 (F,4 | F,2) B,,2 E,2 E,E, | B,,4 z2 B,2- | B,2 F,2 G,4 | F,4 B,,4 | %18
w: _ so eat-|eth my flesh,|_ and drink- eth my|blood, hath|_ e- ter-|nal life;|
 z2 E,2 E,2 E,2 | B,,B,, =C,2 B,,B,, B,,2 | E,2 E,2 E,F,G,A, | B,2 G,2 A,2 B,2 | E,4 z4 | %23
w: and I will|raise him up at the last|day, and I will raise him|up at the last|day.|
 E,2 E,2 B,2 B,2 | F,2 F,2 B,,4 | z4 E,2 E,2 | B,2 B,2 F,2 F,2 | [B,,B,]4 z2 D2- | D2 C2 B,2 B,B, | %29
w: For my flesh is|meat in- deed,|and my|blood is drink in-|deed. He|_ that eat- eth my|
 A,6 (E,2 | B,2) B,B, F,4 | z2 D,2 E,2 E,2 | F,4 B,,4 | E,4 B,,4 | E,8 |] %35
w: flesh, and|drink- eth my blood,|dwell- eth in|me, and|I in|him.|

